;FLAVOR:Marlin
;TIME:478
;Filament used: 0.465011m
;Layer height: 0.2
;MINX:92.74
;MINY:92.854
;MINZ:0.2
;MAXX:117.26
;MAXY:117.146
;MAXZ:9
;Generated with Cura_SteamEngine 4.8.0
M140 S60
M105
M190 S60
M104 S220
M105
M109 S220
M82 ;absolute extrusion mode
G21 ;metric values
G90 ;absolute positioning
M82 ;set extruder to absolute mode
M107 ;start with the fan off
G28 X0 Y0 ;move X/Y to min endstops
G28 Z0 ;move Z to min endstops
G1 Z15.0 F100 ;move the platform down 15mm
G92 E0 ;zero the extruded length
G1 F200 E3 ;extrude 3mm of feed stock
G92 E0 ;zero the extruded length again
G1 F100
G0 Y20 F100
M117 Printing...
G5
G92 E0
G92 E0
G1 F2400 E-6
;LAYER_COUNT:45
;LAYER:0
M106 S255
M204 S3000
M205 X10 Y10
G1 F600 Z0.275
G0 F3000 X94.298 Y94.248 Z0.275
M204 S1800
M205 X8 Y8
;TYPE:SKIRT
G1 F600 Z0.2
G1 F2400 E0
G1 X94.762 Y93.841 E0.02874
G1 X95.274 Y93.498 E0.05744
G1 X95.826 Y93.223 E0.08615
G1 X96.409 Y93.022 E0.11487
G1 X97.014 Y92.899 E0.14362
G1 X97.664 Y92.854 E0.17395
G1 X112.336 Y92.854 E0.85714
G1 X112.951 Y92.894 E0.88584
G1 X113.557 Y93.013 E0.9146
G1 X114.141 Y93.21 E0.9433
G1 X114.696 Y93.48 E0.97204
G1 X115.21 Y93.82 E1.00073
G1 X115.702 Y94.248 E1.0311
G1 X115.866 Y94.412 E1.0419
G1 X116.273 Y94.876 E1.07064
G1 X116.616 Y95.388 E1.09933
G1 X116.891 Y95.94 E1.12805
G1 X117.092 Y96.523 E1.15677
G1 X117.215 Y97.128 E1.18551
G1 X117.26 Y97.778 E1.21585
G1 X117.26 Y112.222 E1.88843
G1 X117.22 Y112.837 E1.91712
G1 X117.101 Y113.443 E1.94588
G1 X116.904 Y114.027 E1.97458
G1 X116.634 Y114.582 E2.00332
G1 X116.294 Y115.096 E2.03201
G1 X115.866 Y115.588 E2.06238
G1 X115.702 Y115.752 E2.07318
G1 X115.238 Y116.159 E2.10192
G1 X114.726 Y116.502 E2.13061
G1 X114.174 Y116.777 E2.15933
G1 X113.591 Y116.978 E2.18805
G1 X112.986 Y117.101 E2.21679
G1 X112.336 Y117.146 E2.24713
G1 X97.664 Y117.146 E2.93032
G1 X97.049 Y117.106 E2.95902
G1 X96.443 Y116.987 E2.98778
G1 X95.859 Y116.79 E3.01648
G1 X95.304 Y116.52 E3.04521
G1 X94.79 Y116.18 E3.07391
G1 X94.298 Y115.752 E3.10428
G1 X94.134 Y115.588 E3.11508
G1 X93.727 Y115.124 E3.14382
G1 X93.384 Y114.612 E3.17251
G1 X93.109 Y114.06 E3.20123
G1 X92.908 Y113.477 E3.22994
G1 X92.785 Y112.872 E3.25869
G1 X92.74 Y112.222 E3.28903
G1 X92.74 Y97.778 E3.9616
G1 X92.78 Y97.163 E3.9903
G1 X92.899 Y96.557 E4.01906
G1 X93.096 Y95.973 E4.04776
G1 X93.366 Y95.418 E4.0765
G1 X93.706 Y94.904 E4.10519
G1 X94.134 Y94.412 E4.13556
G1 X94.298 Y94.248 E4.14636
M204 S3000
M205 X10 Y10
G0 F3000 X94.694 Y94.644
M204 S1800
M205 X8 Y8
G1 F2400 X95.131 Y94.264 E4.17332
G1 X95.616 Y93.947 E4.2003
G1 X96.14 Y93.7 E4.22728
G1 X96.693 Y93.528 E4.25424
G1 X97.265 Y93.433 E4.28124
G1 X97.664 Y93.414 E4.29984
G1 X112.336 Y93.414 E4.98303
G1 X112.914 Y93.454 E5.01001
G1 X113.481 Y93.573 E5.03699
G1 X114.026 Y93.769 E5.06396
G1 X114.539 Y94.038 E5.09093
G1 X115.01 Y94.375 E5.1179
G1 X115.47 Y94.808 E5.14731
G1 X115.85 Y95.245 E5.17428
G1 X116.167 Y95.73 E5.20126
G1 X116.414 Y96.254 E5.22823
G1 X116.586 Y96.807 E5.2552
G1 X116.681 Y97.379 E5.2822
G1 X116.7 Y97.778 E5.3008
G1 X116.7 Y112.222 E5.97337
G1 X116.66 Y112.8 E6.00035
G1 X116.541 Y113.367 E6.02733
G1 X116.345 Y113.912 E6.0543
G1 X116.076 Y114.425 E6.08127
G1 X115.739 Y114.896 E6.10824
G1 X115.306 Y115.356 E6.13765
G1 X114.869 Y115.736 E6.16462
G1 X114.384 Y116.053 E6.1916
G1 X113.86 Y116.3 E6.21857
G1 X113.307 Y116.472 E6.24554
G1 X112.735 Y116.567 E6.27254
G1 X112.336 Y116.586 E6.29114
G1 X97.664 Y116.586 E6.97433
G1 X97.086 Y116.546 E7.00131
G1 X96.519 Y116.427 E7.02829
G1 X95.974 Y116.231 E7.05525
G1 X95.461 Y115.962 E7.08223
G1 X94.99 Y115.625 E7.10919
G1 X94.53 Y115.192 E7.13861
G1 X94.15 Y114.755 E7.16558
G1 X93.833 Y114.27 E7.19256
G1 X93.586 Y113.746 E7.21953
G1 X93.414 Y113.193 E7.2465
G1 X93.319 Y112.621 E7.2735
G1 X93.3 Y112.222 E7.2921
G1 X93.3 Y97.778 E7.96467
G1 X93.34 Y97.2 E7.99165
G1 X93.459 Y96.633 E8.01863
G1 X93.655 Y96.088 E8.04559
G1 X93.924 Y95.575 E8.07257
G1 X94.261 Y95.104 E8.09953
G1 X94.694 Y94.644 E8.12895
M204 S3000
M205 X10 Y10
G0 F3000 X95.09 Y95.04
M204 S1800
M205 X8 Y8
G1 F2400 X95.499 Y94.688 E8.15408
G1 X95.955 Y94.4 E8.17919
G1 X96.448 Y94.183 E8.20427
G1 X96.968 Y94.041 E8.22937
G1 X97.664 Y93.974 E8.26193
G1 X112.336 Y93.974 E8.94512
G1 X112.874 Y94.014 E8.97024
G1 X113.4 Y94.133 E8.99535
G1 X113.902 Y94.328 E9.02043
G1 X114.371 Y94.596 E9.04558
G1 X114.91 Y95.04 E9.0781
G1 X115.074 Y95.204 E9.0889
G1 X115.426 Y95.613 E9.11403
G1 X115.714 Y96.069 E9.13914
G1 X115.931 Y96.562 E9.16422
G1 X116.073 Y97.082 E9.18932
G1 X116.14 Y97.778 E9.22188
G1 X116.14 Y112.222 E9.89445
G1 X116.1 Y112.76 E9.91957
G1 X115.981 Y113.286 E9.94468
G1 X115.786 Y113.788 E9.96976
G1 X115.518 Y114.257 E9.99491
G1 X115.074 Y114.796 E10.02743
G1 X114.91 Y114.96 E10.03823
G1 X114.501 Y115.312 E10.06336
G1 X114.045 Y115.6 E10.08847
G1 X113.552 Y115.817 E10.11355
G1 X113.032 Y115.959 E10.13865
G1 X112.336 Y116.026 E10.17121
G1 X97.664 Y116.026 E10.8544
G1 X97.126 Y115.986 E10.87952
G1 X96.6 Y115.867 E10.90463
G1 X96.098 Y115.672 E10.92971
G1 X95.629 Y115.404 E10.95486
G1 X95.09 Y114.96 E10.98738
G1 X94.926 Y114.796 E10.99818
G1 X94.574 Y114.387 E11.02331
G1 X94.286 Y113.931 E11.04842
G1 X94.069 Y113.438 E11.0735
G1 X93.927 Y112.918 E11.0986
G1 X93.86 Y112.222 E11.13116
G1 X93.86 Y97.778 E11.80373
G1 X93.9 Y97.24 E11.82885
G1 X94.019 Y96.714 E11.85396
G1 X94.214 Y96.212 E11.87904
G1 X94.482 Y95.743 E11.90419
G1 X94.926 Y95.204 E11.93671
G1 X95.09 Y95.04 E11.94751
M204 S3000
M205 X10 Y10
G0 F3000 X95.486 Y95.436
M204 S1800
M205 X8 Y8
G1 F2400 X95.864 Y95.115 E11.9706
G1 X96.288 Y94.858 E11.99369
G1 X96.749 Y94.673 E12.01682
G1 X97.232 Y94.564 E12.03988
G1 X97.664 Y94.534 E12.06004
G1 X112.336 Y94.534 E12.74323
G1 X112.83 Y94.574 E12.76631
G1 X113.312 Y94.693 E12.78943
G1 X113.768 Y94.887 E12.8125
G1 X114.187 Y95.152 E12.83559
G1 X114.678 Y95.6 E12.86654
G1 X114.999 Y95.978 E12.88963
G1 X115.256 Y96.402 E12.91271
G1 X115.441 Y96.863 E12.93584
G1 X115.55 Y97.346 E12.9589
G1 X115.58 Y97.778 E12.97906
G1 X115.58 Y112.222 E13.65164
G1 X115.54 Y112.716 E13.67472
G1 X115.421 Y113.198 E13.69783
G1 X115.227 Y113.654 E13.72091
G1 X114.962 Y114.073 E13.74399
G1 X114.514 Y114.564 E13.77494
G1 X114.136 Y114.885 E13.79803
G1 X113.712 Y115.142 E13.82112
G1 X113.251 Y115.327 E13.84425
G1 X112.768 Y115.436 E13.86731
G1 X112.336 Y115.466 E13.88747
G1 X97.664 Y115.466 E14.57066
G1 X97.17 Y115.426 E14.59374
G1 X96.688 Y115.307 E14.61686
G1 X96.232 Y115.113 E14.63993
G1 X95.813 Y114.848 E14.66302
G1 X95.322 Y114.4 E14.69397
G1 X95.001 Y114.022 E14.71706
G1 X94.744 Y113.598 E14.74015
G1 X94.559 Y113.137 E14.76328
G1 X94.45 Y112.654 E14.78633
G1 X94.42 Y112.222 E14.8065
G1 X94.42 Y97.778 E15.47907
G1 X94.46 Y97.284 E15.50215
G1 X94.579 Y96.802 E15.52526
G1 X94.773 Y96.346 E15.54834
G1 X95.038 Y95.927 E15.57142
G1 X95.486 Y95.436 E15.60237
M204 S3000
M205 X10 Y10
G0 F3000 X95.718 Y95.996
M204 S1800
M205 X8 Y8
G1 F2400 X96.226 Y95.544 E15.63404
G1 X96.616 Y95.322 E15.65493
G1 X97.039 Y95.173 E15.67582
G1 X97.664 Y95.094 E15.70515
G1 X112.336 Y95.094 E16.38834
G1 X112.783 Y95.134 E16.40924
G1 X113.215 Y95.252 E16.43009
G1 X113.62 Y95.446 E16.451
G1 X114.118 Y95.832 E16.48034
G1 X114.57 Y96.34 E16.512
G1 X114.792 Y96.73 E16.5329
G1 X114.941 Y97.153 E16.55378
G1 X115.02 Y97.778 E16.58312
G1 X115.02 Y112.222 E17.25569
G1 X114.98 Y112.669 E17.27659
G1 X114.862 Y113.101 E17.29744
G1 X114.668 Y113.506 E17.31835
G1 X114.282 Y114.004 E17.34769
G1 X113.774 Y114.456 E17.37935
G1 X113.384 Y114.678 E17.40025
G1 X112.961 Y114.827 E17.42113
G1 X112.336 Y114.906 E17.45046
G1 X97.664 Y114.906 E18.13365
G1 X97.217 Y114.866 E18.15455
G1 X96.785 Y114.748 E18.1754
G1 X96.38 Y114.554 E18.19631
G1 X95.882 Y114.168 E18.22565
G1 X95.43 Y113.66 E18.25732
G1 X95.208 Y113.27 E18.27821
G1 X95.059 Y112.847 E18.29909
G1 X94.98 Y112.222 E18.32843
G1 X94.98 Y97.778 E19.001
G1 X95.02 Y97.331 E19.0219
G1 X95.138 Y96.899 E19.04275
G1 X95.332 Y96.494 E19.06366
G1 X95.718 Y95.996 E19.093
M204 S3000
M205 X10 Y10
G0 F3000 X96.278 Y96.228
M204 S1800
M205 X8 Y8
G1 F2400 X96.584 Y95.978 E19.1114
G1 X96.935 Y95.795 E19.12983
G1 X97.315 Y95.685 E19.14825
G1 X97.664 Y95.654 E19.16457
G1 X112.336 Y95.654 E19.84776
G1 X112.729 Y95.694 E19.86615
G1 X113.107 Y95.812 E19.88459
G1 X113.453 Y96.003 E19.90299
G1 X113.886 Y96.392 E19.9301
G1 X114.136 Y96.698 E19.9485
G1 X114.319 Y97.049 E19.96693
G1 X114.429 Y97.429 E19.98535
G1 X114.46 Y97.778 E20.00167
G1 X114.46 Y112.222 E20.67424
G1 X114.42 Y112.615 E20.69263
G1 X114.302 Y112.993 E20.71107
G1 X114.111 Y113.339 E20.72947
G1 X113.722 Y113.772 E20.75658
G1 X113.416 Y114.022 E20.77498
G1 X113.065 Y114.205 E20.79341
G1 X112.685 Y114.315 E20.81183
G1 X112.336 Y114.346 E20.82815
G1 X97.664 Y114.346 E21.51134
G1 X97.271 Y114.306 E21.52973
G1 X96.893 Y114.188 E21.54817
G1 X96.547 Y113.997 E21.56657
G1 X96.114 Y113.608 E21.59368
G1 X95.864 Y113.302 E21.61207
G1 X95.681 Y112.951 E21.63051
G1 X95.571 Y112.571 E21.64893
G1 X95.54 Y112.222 E21.66524
G1 X95.54 Y97.778 E22.33782
G1 X95.58 Y97.385 E22.35621
G1 X95.698 Y97.007 E22.37465
G1 X95.889 Y96.661 E22.39305
G1 X96.278 Y96.228 E22.42016
M204 S3000
M205 X10 Y10
G0 F3000 X96.674 Y96.624
M204 S1800
M205 X8 Y8
G1 F2400 X96.937 Y96.418 E22.43571
G1 X97.241 Y96.279 E22.45128
G1 X97.664 Y96.214 E22.4712
G1 X112.336 Y96.214 E23.15439
G1 X112.668 Y96.254 E23.16997
G1 X112.98 Y96.371 E23.18548
G1 X113.49 Y96.788 E23.21616
G1 X113.696 Y97.051 E23.23171
G1 X113.835 Y97.355 E23.24728
G1 X113.9 Y97.778 E23.26721
G1 X113.9 Y112.222 E23.93978
G1 X113.86 Y112.554 E23.95535
G1 X113.743 Y112.866 E23.97087
G1 X113.326 Y113.376 E24.00154
G1 X113.063 Y113.582 E24.0171
G1 X112.759 Y113.721 E24.03266
G1 X112.336 Y113.786 E24.05259
G1 X97.664 Y113.786 E24.73578
G1 X97.332 Y113.746 E24.75135
G1 X97.02 Y113.629 E24.76687
G1 X96.51 Y113.212 E24.79754
G1 X96.304 Y112.949 E24.8131
G1 X96.165 Y112.645 E24.82866
G1 X96.1 Y112.222 E24.84859
G1 X96.1 Y97.778 E25.52116
G1 X96.14 Y97.446 E25.53674
G1 X96.257 Y97.134 E25.55225
G1 X96.674 Y96.624 E25.58293
M204 S3000
M205 X10 Y10
G0 F3000 X96.906 Y97.184
M204 S1800
M205 X8 Y8
G1 F2400 X97.279 Y96.868 E25.60569
G1 X97.664 Y96.774 E25.62414
G1 X112.336 Y96.774 E26.30733
G1 X112.591 Y96.814 E26.31935
G1 X112.93 Y97.02 E26.33782
G1 X113.246 Y97.393 E26.36059
G1 X113.34 Y97.778 E26.37904
G1 X113.34 Y112.222 E27.05161
G1 X113.3 Y112.477 E27.06363
G1 X113.094 Y112.816 E27.0821
G1 X112.721 Y113.132 E27.10487
G1 X112.336 Y113.226 E27.12332
G1 X97.664 Y113.226 E27.80651
G1 X97.409 Y113.186 E27.81853
G1 X97.07 Y112.98 E27.837
G1 X96.754 Y112.607 E27.85977
G1 X96.66 Y112.222 E27.87822
G1 X96.66 Y97.778 E28.55079
G1 X96.7 Y97.523 E28.56281
G1 X96.906 Y97.184 E28.58128
M204 S3000
M205 X10 Y10
G0 F3000 X97.466 Y97.416
M204 S1800
M205 X8 Y8
G1 F2400 X97.664 Y97.334 E28.59126
G1 X112.336 Y97.334 E29.27445
G1 X112.534 Y97.416 E29.28443
G1 X112.698 Y97.58 E29.29523
G1 X112.78 Y97.778 E29.30521
G1 X112.78 Y112.222 E29.97778
G1 X112.698 Y112.42 E29.98776
G1 X112.534 Y112.584 E29.99856
G1 X112.336 Y112.666 E30.00854
G1 X97.664 Y112.666 E30.69173
G1 X97.466 Y112.584 E30.70171
G1 X97.302 Y112.42 E30.71251
G1 X97.22 Y112.222 E30.72249
G1 X97.22 Y97.778 E31.39506
G1 X97.302 Y97.58 E31.40504
G1 X97.466 Y97.416 E31.41584
M204 S3000
M205 X10 Y10
G1 F2400 E25.41584
;MESH:encaixe suporte controlador L.stl
G0 F3000 X98.354 Y98.468
G0 X111.59 Y111.476
G0 X112.22 Y112.106
M204 S1800
M205 X8 Y8
;TYPE:WALL-OUTER
G1 F2400 E31.41584
G1 F1800 X97.78 Y112.106 E32.08823
G1 X97.78 Y97.894 E32.75
G1 X112.22 Y97.894 E33.42238
G1 X112.22 Y112.106 E34.08415
M204 S3000
M205 X10 Y10
G0 F3000 X112.02 Y112.106
G0 X111.66 Y111.546
M204 S1800
M205 X8 Y8
;TYPE:WALL-INNER
G1 F1800 X98.34 Y111.546 E34.70439
G1 X98.34 Y98.454 E35.31401
G1 X111.66 Y98.454 E35.93424
G1 X111.66 Y111.546 E36.54386
M204 S3000
M205 X10 Y10
G0 F3000 X111.1 Y110.986
M204 S1800
M205 X8 Y8
G1 F1800 X98.9 Y110.986 E37.11194
G1 X98.9 Y99.014 E37.66941
G1 X111.1 Y99.014 E38.23749
G1 X111.1 Y110.986 E38.79496
M204 S3000
M205 X10 Y10
G0 F3000 X110.55 Y110.436
M204 S1800
M205 X8 Y8
;TYPE:SKIN
G1 F1800 X99.45 Y110.436 E39.31182
G1 X99.45 Y99.564 E39.81807
G1 X110.55 Y99.564 E40.33493
G1 X110.55 Y110.436 E40.84118
M204 S3000
M205 X10 Y10
G0 F3000 X110.289 Y99.994
M204 S1800
M205 X8 Y8
G1 F1800 X110.119 Y99.824 E40.85237
M204 S3000
M205 X10 Y10
G0 F3000 X109.327 Y99.824
M204 S1800
M205 X8 Y8
G1 F1800 X110.289 Y100.786 E40.91572
M204 S3000
M205 X10 Y10
G0 F3000 X110.289 Y101.578
M204 S1800
M205 X8 Y8
G1 F1800 X108.535 Y99.824 E41.03122
M204 S3000
M205 X10 Y10
G0 F3000 X107.743 Y99.824
M204 S1800
M205 X8 Y8
G1 F1800 X110.289 Y102.369 E41.19885
M204 S3000
M205 X10 Y10
G0 F3000 X110.289 Y103.161
M204 S1800
M205 X8 Y8
G1 F1800 X106.952 Y99.824 E41.4186
M204 S3000
M205 X10 Y10
G0 F3000 X106.16 Y99.824
M204 S1800
M205 X8 Y8
G1 F1800 X110.289 Y103.953 E41.6905
M204 S3000
M205 X10 Y10
G0 F3000 X110.289 Y104.745
M204 S1800
M205 X8 Y8
G1 F1800 X105.368 Y99.824 E42.01456
M204 S3000
M205 X10 Y10
G0 F3000 X104.575 Y99.823
M204 S1800
M205 X8 Y8
G1 F1800 X110.289 Y105.537 E42.39083
M204 S3000
M205 X10 Y10
G0 F3000 X110.289 Y106.329
M204 S1800
M205 X8 Y8
G1 F1800 X103.783 Y99.823 E42.81926
M204 S3000
M205 X10 Y10
G0 F3000 X102.991 Y99.823
M204 S1800
M205 X8 Y8
G1 F1800 X110.289 Y107.121 E43.29985
M204 S3000
M205 X10 Y10
G0 F3000 X110.289 Y107.913
M204 S1800
M205 X8 Y8
G1 F1800 X102.199 Y99.823 E43.83259
M204 S3000
M205 X10 Y10
G0 F3000 X101.407 Y99.823
M204 S1800
M205 X8 Y8
G1 F1800 X110.289 Y108.705 E44.41748
M204 S3000
M205 X10 Y10
G0 F3000 X110.289 Y109.497
M204 S1800
M205 X8 Y8
G1 F1800 X100.615 Y99.823 E45.05453
M204 S3000
M205 X10 Y10
G0 F3000 X99.823 Y99.823
M204 S1800
M205 X8 Y8
G1 F1800 X110.175 Y110.175 E45.73623
M204 S3000
M205 X10 Y10
G0 F3000 X109.383 Y110.175
M204 S1800
M205 X8 Y8
G1 F1800 X99.709 Y100.501 E46.37328
M204 S3000
M205 X10 Y10
G0 F3000 X99.709 Y101.293
M204 S1800
M205 X8 Y8
G1 F1800 X108.591 Y110.175 E46.95817
M204 S3000
M205 X10 Y10
G0 F3000 X107.799 Y110.175
M204 S1800
M205 X8 Y8
G1 F1800 X99.709 Y102.085 E47.49092
M204 S3000
M205 X10 Y10
G0 F3000 X99.709 Y102.877
M204 S1800
M205 X8 Y8
G1 F1800 X107.007 Y110.175 E47.9715
M204 S3000
M205 X10 Y10
G0 F3000 X106.215 Y110.175
M204 S1800
M205 X8 Y8
G1 F1800 X99.709 Y103.669 E48.39993
M204 S3000
M205 X10 Y10
G0 F3000 X99.709 Y104.461
M204 S1800
M205 X8 Y8
G1 F1800 X105.423 Y110.175 E48.77621
M204 S3000
M205 X10 Y10
G0 F3000 X104.631 Y110.175
M204 S1800
M205 X8 Y8
G1 F1800 X99.709 Y105.253 E49.10033
M204 S3000
M205 X10 Y10
G0 F3000 X99.709 Y106.045
M204 S1800
M205 X8 Y8
G1 F1800 X103.839 Y110.175 E49.3723
M204 S3000
M205 X10 Y10
G0 F3000 X103.047 Y110.175
M204 S1800
M205 X8 Y8
G1 F1800 X99.709 Y106.837 E49.59211
M204 S3000
M205 X10 Y10
G0 F3000 X99.709 Y107.629
M204 S1800
M205 X8 Y8
G1 F1800 X102.255 Y110.175 E49.75977
M204 S3000
M205 X10 Y10
G0 F3000 X101.463 Y110.175
M204 S1800
M205 X8 Y8
G1 F1800 X99.709 Y108.421 E49.87527
M204 S3000
M205 X10 Y10
G0 F3000 X99.709 Y109.213
M204 S1800
M205 X8 Y8
G1 F1800 X100.671 Y110.175 E49.93862
M204 S3000
M205 X10 Y10
G0 F3000 X99.879 Y110.175
M204 S1800
M205 X8 Y8
G1 F1800 X99.709 Y110.005 E49.94982
M204 S3000
M205 X10 Y10
;MESH:NONMESH
G0 F600 X99.709 Y110.005 Z0.4
G0 F3000 X111.5 Y111.386
;TIME_ELAPSED:37.295942
;LAYER:1
M204 S1800
M205 X8 Y8
;TYPE:WALL-INNER
;MESH:encaixe suporte controlador L.stl
G1 F2700 X98.5 Y111.386 E50.3822
G1 X98.5 Y98.614 E50.807
G1 X111.5 Y98.614 E51.23938
G1 X111.5 Y111.386 E51.66418
M204 S3000
M205 X10 Y10
G0 F4500 X111.9 Y111.786
M204 S1800
M205 X8 Y8
G1 F2700 X98.1 Y111.786 E52.12317
G1 X98.1 Y98.214 E52.57457
G1 X111.9 Y98.214 E53.03356
G1 X111.9 Y111.786 E53.48497
M204 S3000
M205 X10 Y10
G0 F4500 X112.3 Y112.186
M204 S1800
M205 X8 Y8
;TYPE:WALL-OUTER
G1 F2700 X97.7 Y112.186 E53.97057
G1 X97.7 Y97.814 E54.44858
G1 X112.3 Y97.814 E54.93418
G1 X112.3 Y112.186 E55.4122
M204 S3000
M205 X10 Y10
G0 F4500 X112.1 Y112.186
G0 X111.83 Y111.716
G0 X111.11 Y110.996
M204 S1800
M205 X8 Y8
;TYPE:SKIN
G1 F1620 X98.89 Y110.996 E55.81864
G1 X98.89 Y99.004 E56.21749
